!!!COM:	Bach, Johann Sebastian
!!!CDT:	1685/02/21/-1750/07/28/
!!!OTL@@DE:	Mein' Augen schlie&szlig; ich jetzt
!!!SCT:	BWV 378
!!!PC#:	258
!!!AGN:	chorale
**kern	**kern	**kern	**kern
*ICvox	*ICvox	*ICvox	*ICvox
*Ibass	*Itenor	*Ialto	*Isoprn
*I"Bass	*I"Tenor	*I"Alto	*I"Soprano
*	*oclefC4	*oclefC3	*oclefC1
*clefF4	*clefGv2	*clefG2	*clefG2
*k[f#]	*k[f#]	*k[f#]	*k[f#]
*G:	*G:	*G:	*G:
*M4/4	*M4/4	*M4/4	*M4/4
*met(c)	*met(c)	*met(c)	*met(c)
*MM100	*MM100	*MM100	*MM100
8GGL	8BL	4d	4g
8AAJ	8AJ	.	.
=1	=1	=1	=1
8BBL	4G	4d	4g
8CJ	.	.	.
8DL	4F#	4A	4d
8CJ	.	.	.
4BB	4G	4d	4g
4AA	4c	8eL	4a
.	.	8f#J	.
=2	=2	=2	=2
2GG;	2d;	2g;	2b;
4r	4ry	4ry	4r
4BB	4d	[4g	4dd
=3	=3	=3	=3
4.C	4c	8gL]	4ee
.	.	8f#J	.
.	4d	[4g	4dd
8BB	.	.	.
4AA	8eL	8gL]	4.cc
.	16dL	16f#L	.
.	16cJJ	16eJJ	.
4DD	4d	4f#	.
.	.	.	8dd
=4	=4	=4	=4
2GG;	2d;	2g;	2b;
4r	4ry	4ry	4r
4GG	4B	[4g	4dd
=5	=5	=5	=5
4AA	4c	8gL]	4cc
.	.	8f#J	.
8BBL	4d	[4g	4b
8CJ	.	.	.
4D	4.d	8gL]	4a
.	.	8f#J	.
4E	.	8gL	4g
.	8c#	8GJ	.
=6	=6	=6	=6
2D;	2f#;	2d;	2a;
4r	4ry	4ry	4r
4D#	4B	4f#	4b
=7	=7	=7	=7
4.E	4B	8f#L	4g
.	.	16eL	.
.	.	16f#JJ	.
.	8eL	8gL	4cc
8F#	8dnXJ	[8aJ	.
4G	4d	8aL]	4b
.	.	8gJ	.
4DnX	8.dL	8gL	4a
.	.	8f#J	.
.	16cJk	.	.
=8	=8	=8	=8
2GG;	2B;	2d;	2g;
4r	4ry	4ry	4r
8GGL	4d	4g	8bL
8AAJ	.	.	8ccJ
=9	=9	=9	=9
4.BB	8dL	4g	4dd
.	8cJ	.	.
.	4B	4g	4dd
8E	.	.	.
4AA	4c	8gL	4cc
.	.	8f#J	.
8BBL	4d	4g	4b
8CJ	.	.	.
=10	=10	=10	=10
2D;	2d;	4g	2a;
.	.	4f#;	.
4r	4ry	4ry	4r
4D#	4B	4f#	4b
=11	=11	=11	=11
8EL	8BL	4e	4g
8DnXJ	8cJ	.	.
8CL	4d	4d	4g
8BBJ	.	.	.
8CL	4c	4e	4a
8BB	.	.	.
8AA	[4B	4e	4b
8GG#J	.	.	.
=12	=12	=12	=12
8AAL	8BL]	2e	2cc
8BB	16AL	.	.
.	16G#JJ	.	.
8C	4A	.	.
8DJ	.	.	.
4E;	8AL	4e;	4b;
.	8G#;J	.	.
4BB	4G	8dL	4dd
.	.	8fJ	.
=13	=13	=13	=13
4C	4G	8e	4cc
.	.	4g	.
4D	4d	.	4a
.	.	8f#X	.
8GL	4d	4g	4b
8F#J	.	.	.
4E	4e	4g	4cc
=14	=14	=14	=14
2BB;	2d;	2g;	2dd;
4r	4ry	4ry	4r
8EL	4B	[4e	4g
8DJ	.	.	.
=15	=15	=15	=15
4C	8cL	8eL]	4a
.	8dJ	8f#J	.
8BBL	8dL	[4g	4b
8EJ	16eL	.	.
.	16dJJ	.	.
4AA	4c	8gL]	4cc
.	.	8f#J	.
8BBL	4d	4g	4b
8GGJ	.	.	.
=16	=16	=16	=16
4C	4e	8gL	2a
.	.	16f#L	.
.	.	16eJJ	.
4D	8.dL	4f#	.
.	16cJk	.	.
4GG;	4B;	4d;	4g;
==	==	==	==
*-	*-	*-	*-
!!!YOR1: 371 vierstimmige Choralges&auml;nge von Johann Sebastian Bach, 
!!!YOR2: 4th ed. by Alfred D&ouml;rffel (Leipzig: Breitkopf und H&auml;rtel, 
!!!YOR2: c.1875). 178 pp. Plate "V.A.10".  reprint: J.S. Bach, 371 Four-Part 
!!!YOR4: Chorales (New York: Associated Music Publishers, Inc., c.1940).
!!!SMS: B&H, 4th ed, Alfred D&ouml;rffel, c.1875, plate V.A.10
!!!EED:  Craig Stuart Sapp
!!!EEV:  2009/05/22
